images/icons/search.svg

<svg width="64" height="64" viewBox="0 0 64 64" fill="none" xmlns="http://www.w3.org/2000/svg">
<g clip-path="url(#clip0_1_152)">
<path d="M63.1296 55.3321L50.6662 42.8708C50.1037 42.3084 49.3411 41.9959 48.541 41.9959H46.5034C49.9537 37.5838 52.0038 32.0344 52.0038 25.9975C52.0038 11.6364 40.3655 0 26.0019 0C11.6384 0 0 11.6364 0 25.9975C0 40.3586 11.6384 51.9949 26.0019 51.9949C32.0398 51.9949 37.5903 49.9451 42.0031 46.4955V48.5328C42.0031 49.3327 42.3156 50.0951 42.8781 50.6576L55.3416 63.1188C56.5166 64.2937 58.4168 64.2937 59.5794 63.1188L63.1171 59.5817C64.2922 58.4068 64.2922 56.507 63.1296 55.3321ZM26.0019 41.9959C17.1638 41.9959 10.0007 34.8466 10.0007 25.9975C10.0007 17.1608 17.1513 9.99902 26.0019 9.99902C34.84 9.99902 42.0031 17.1483 42.0031 25.9975C42.0031 34.8341 34.8526 41.9959 26.0019 41.9959Z" fill="black"/>
</g>
<defs>
<clipPath id="clip0_1_152">
<rect width="64" height="64" fill="white"/>
</clipPath>
</defs>
</svg>

<svg width="64" height="64" viewBox="0 0 64 64" fill="none" xmlns="http://www.w3.org/2000/svg"><g clip-path="url(#a)"><path d="M63.13 55.332 50.666 42.871a2.998 2.998 0 0 0-2.125-.875h-2.038a25.867 25.867 0 0 0 5.5-15.999C52.004 11.637 40.366 0 26.003 0 11.638 0 0 11.636 0 25.997 0 40.36 11.638 51.995 26.002 51.995c6.038 0 11.588-2.05 16.001-5.5v2.038c0 .8.313 1.562.875 2.125l12.464 12.46a2.988 2.988 0 0 0 4.237 0l3.538-3.536a3.013 3.013 0 0 0 .013-4.25ZM26.002 41.996C17.164 41.996 10 34.846 10 25.997 10 17.161 17.15 10 26 10c8.839 0 16.002 7.15 16.002 15.998 0 8.837-7.15 15.999-16.001 15.999Z" fill="#000"/></g><defs><clipPath id="a"><path fill="#fff" d="M0 0h64v64H0z"/></clipPath></defs></svg>
